svg/fluentui-system-icons/ic_fluent_wallet_credit_card_24_filled.svg

<svg width="24" height="24" viewBox="0 0 24 24" fill="none" xmlns="http://www.w3.org/2000/svg">
<path d="M14.3557 2.59534C14.4445 2.48261 14.6098 2.46762 14.7175 2.56254L15.6385 3.37473L12.7383 7H14.6592L16.7648 4.36797L18.417 5.82489C18.5186 5.9145 18.5304 6.06873 18.4435 6.1727L17.7523 7H19.6965C20.1905 6.27893 20.0778 5.28948 19.4091 4.69984L15.7096 1.43749C14.9561 0.77305 13.7991 0.877958 13.1775 1.66709L8.9762 7H10.8858L14.3557 2.59534ZM5.25 6.5C4.83579 6.5 4.5 6.83579 4.5 7.25C4.5 7.66421 4.83579 8 5.25 8L18.25 8C20.0449 8 21.5 9.45507 21.5 11.25V17.75C21.5 19.5449 20.0449 21 18.25 21H6.25C4.45507 21 3 19.5449 3 17.75V7.25C3 6.00736 4.00736 5 5.25 5H9.57L8.37844 6.5H5.25ZM15.5 14.75C15.5 15.1642 15.8358 15.5 16.25 15.5H18.25C18.6642 15.5 19 15.1642 19 14.75C19 14.3358 18.6642 14 18.25 14H16.25C15.8358 14 15.5 14.3358 15.5 14.75Z" fill="#212121"/>
</svg>

<svg xmlns="http://www.w3.org/2000/svg" width="24" height="24"><path d="M14.356 2.595a.25.25 0 0 1 .361-.032l.921.812L12.739 7h1.921l2.106-2.632 1.652 1.457a.25.25 0 0 1 .026.348l-.69.827h1.944a1.75 1.75 0 0 0-.288-2.3l-3.7-3.263a1.75 1.75 0 0 0-2.531.23L8.976 7h1.91l3.47-4.405ZM5.25 6.5a.75.75 0 0 0 0 1.5h13a3.25 3.25 0 0 1 3.25 3.25v6.5A3.25 3.25 0 0 1 18.25 21h-12A3.25 3.25 0 0 1 3 17.75V7.25A2.25 2.25 0 0 1 5.25 5h4.32L8.378 6.5H5.25Zm10.25 8.25c0 .414.336.75.75.75h2a.75.75 0 0 0 0-1.5h-2a.75.75 0 0 0-.75.75Z"/></svg>
